icons/label-cross-outline.svg

<svg xmlns="http://www.w3.org/2000/svg" width="24" height="24" viewBox="0 0 24 24">
  <path d="M14.1715729,4 C14.9672223,4 15.7302841,4.31607052 16.2928932,4.87867966 L16.2928932,4.87867966 L21.2928932,9.87867966 C22.4644661,11.0502525 22.4644661,12.9497475 21.2928932,14.1213203 L21.2928932,14.1213203 L16.2928932,19.1213203 C15.7302841,19.6839295 14.9672223,20 14.1715729,20 L14.1715729,20 L5,20 C3.34314575,20 2,18.6568542 2,17 L2,17 L2,7 C2,5.34314575 3.34314575,4 5,4 L5,4 Z M14.1715729,6 L5,6 C4.44771525,6 4,6.44771525 4,7 L4,7 L4,17 C4,17.5522847 4.44771525,18 5,18 L5,18 L14.1715729,18 C14.4367894,18 14.6911433,17.8946432 14.8786797,17.7071068 L14.8786797,17.7071068 L19.8786797,12.7071068 C20.2692039,12.3165825 20.2692039,11.6834175 19.8786797,11.2928932 L19.8786797,11.2928932 L14.8786797,6.29289322 C14.6911433,6.10535684 14.4367894,6 14.1715729,6 L14.1715729,6 Z M8.61289944,9.20970461 L8.70710678,9.29289322 L10,10.585 L11.2928932,9.29289322 C11.6834175,8.90236893 12.3165825,8.90236893 12.7071068,9.29289322 C13.0675907,9.65337718 13.0953203,10.2206082 12.7902954,10.6128994 L12.7071068,10.7071068 L11.415,12 L12.7071068,13.2928932 C13.0976311,13.6834175 13.0976311,14.3165825 12.7071068,14.7071068 C12.3466228,15.0675907 11.7793918,15.0953203 11.3871006,14.7902954 L11.2928932,14.7071068 L10,13.415 L8.70710678,14.7071068 C8.31658249,15.0976311 7.68341751,15.0976311 7.29289322,14.7071068 C6.93240926,14.3466228 6.90467972,13.7793918 7.20970461,13.3871006 L7.29289322,13.2928932 L8.585,12 L7.29289322,10.7071068 C6.90236893,10.3165825 6.90236893,9.68341751 7.29289322,9.29289322 C7.65337718,8.93240926 8.22060824,8.90467972 8.61289944,9.20970461 Z"/>
</svg>

<svg xmlns="http://www.w3.org/2000/svg" viewBox="0 0 24 24">
  <path d="M14.17 4a3 3 0 0 1 2.12.88l5 5a3 3 0 0 1 0 4.24l-5 5a3 3 0 0 1-2.12.88H5a3 3 0 0 1-3-3V7a3 3 0 0 1 3-3zm0 2H5a1 1 0 0 0-1 1v10a1 1 0 0 0 1 1h9.17a1 1 0 0 0 .7-.3l5-5a1 1 0 0 0 0-1.4l-5-5a1 1 0 0 0-.7-.3zM8.61 9.21l.1.08L10 10.6l1.3-1.3a1 1 0 0 1 1.49 1.32l-.08.1L11.4 12l1.3 1.3a1 1 0 0 1-1.32 1.49l-.1-.08L10 13.4l-1.3 1.3a1 1 0 0 1-1.49-1.32l.08-.1L8.6 12l-1.3-1.3a1 1 0 0 1 1.32-1.49z"/>
</svg>
